X:32
%%etbk:tnset id:11,pos:3,rep:3x,ant:
%%etbk:wsite http://www.thesession.org/tunes/display/2348
%%etbk:pldat 2016-07-25T19:09,2015-03-27T18:46,2015-03-25T18:36,2015-03-24T17:29,2015-01-26T19:08,2015-01-24T14:11,2015-01-18T11:36,2014-12-07T13:49,2014-12-06T15:50,2014-09-13T16:32,2014-05-07T18:45,2014-02-07T16:39,2013-11-24T15:41,2013-10-02T17:12,2013-05-07T19:40,2013-05-01T16:44,2013-04-30T16:30
T: Mike Flannagan's
T: The Cavan
Z: Piano Box Version by Martin Fleischmann
H: Created 2013-02-19 /  Last Modified 2014-05-07
M: 4/4
L: 1/8
R: reel
K:Edor
|: "em"!4!B!1!E (3EEE !1!E2!5!e!4!d| !3!B!1!E E!3!A "bm"!2!F!1!D!2!F!3!A | "em"!4!BE (3EEE !2!B!3!c!4!d!5!f |1 "bm"!4!e!3!d!2!B!1!A !2!F!1!E!2!F!3!A :||2 "bm"!4!e!3!d!2!B!1!A !2!Fz !1!D!2!F ||
"G"!1!G2 !4!dG !5!eG!4!dG | !3!(3G!2!G!1!G !5!d!4!B "D"!3!A!2!F!1!D!2!F | "G"!1!G2 dG eGdG | "D"!4!e!5!f!3!d!2!B !1!A!2!FDF |
"G"!1!G2 dG eGdG | !3!(3G!2!G!1!G dB "D"AFDF | "em"!1!E!2!F!3!G!4!A !2!B!3!c!4!d!5!f | "bm"!4!e!3!d!2!B!1!A !2!FEFA ||


